X:4
T:Around the World for Sport
Z: id:dc-reel-4
M:C
L:1/8
K:E Minor
F|G2BG F2AF|EBBA BGEF|G2BG FGAc|BdAG FDD:|!
g|f2e^c dBAF|EBBA BGEg|f2e^c dBAF|GBAG FDD:|!